usr/share/icons/biglinux-icons-material/22/actions/texlion.svg

<svg xmlns="http://www.w3.org/2000/svg" viewBox="0 0 22 22">
  <defs id="defs3051">
    <style type="text/css" id="current-color-scheme">
      .ColorScheme-Text {
        color:#dedede;
      }
      </style>
  </defs>
 <path 
     style="fill:currentColor;fill-opacity:1;stroke:none" 
     d="M 10.294118,20.038367 C 9.6074248,18.969234 9.3611718,18.797333 9.0501174,19.169972 c -0.1160392,0.139014 -0.2736981,0.252752 -0.3503528,0.252752 -0.076652,0 -0.5108771,-0.517619 -0.9649371,-1.150263 C 6.8340911,17.01746 6.3957348,16.867941 6.2266938,17.75805 6.1326746,18.253128 6.0856707,18.201369 5.3812078,16.827018 4.9709466,16.026628 4.5137464,15.325396 4.365209,15.268727 c -0.1485376,-0.05667 -0.473796,-0.01078 -0.7227963,0.102044 -0.2490004,0.1128 -0.4926209,0.165425 -0.5413795,0.116948 -0.048759,-0.04848 0.083437,-0.770307 0.2937559,-1.604064 0.4553318,-1.805013 0.3583579,-2.063898 -0.7095108,-1.894122 -0.5257115,0.08358 -0.685278,0.05096 -0.685278,-0.140136 0,-0.136997 0.5090678,-1.108107 1.1312615,-2.1580212 1.0636521,-1.7948516 1.115618,-1.9326727 0.86953,-2.3060881 -0.6421676,-0.9744285 0.3132023,-2.1743759 1.731188,-2.1743759 0.3738816,0 0.6797851,-0.047822 0.6797851,-0.1062666 0,-0.058444 -0.1985297,-0.3408432 -0.4411769,-0.627552 C 5.7279409,4.1903844 5.5294122,3.8925234 5.5294122,3.8151801 c 0,-0.077344 0.5219331,-0.043111 1.1598505,0.076078 L 7.8491144,4.1079622 7.7395614,3.6739657 C 7.6793032,3.435268 7.5845433,3.0139726 7.5289799,2.7377538 L 7.4279538,2.2355384 8.5404607,2.6849872 9.6529668,3.1344359 9.9652598,2.7251727 C 10.137021,2.5000772 10.412459,2.0198285 10.577344,1.6579542 10.74223,1.2960788 10.932426,1 11.000004,1 c 0.06758,0 0.257775,0.2960788 0.422659,0.6579542 0.164887,0.3618743 0.440324,0.842123 0.612085,1.0672185 l 0.312293,0.4092632 1.112506,-0.4494487 1.112506,-0.4494488 -0.101027,0.5022154 c -0.05556,0.2762188 -0.151446,0.7019564 -0.213073,0.9460852 -0.121641,0.4818654 -0.177339,0.4809165 1.815579,0.030945 0.54346,-0.1227055 0.498045,0.1413788 -0.150633,0.8759296 l -0.547693,0.6201954 0.786299,0 c 1.525256,0 2.505956,1.1603673 1.837705,2.1743759 -0.246088,0.3734154 -0.19412,0.5112364 0.869529,2.306088 C 19.490934,10.741288 20,11.712398 20,11.849394 c 0,0.191087 -0.159565,0.223718 -0.685278,0.140137 -1.067868,-0.169777 -1.164843,0.08911 -0.709508,1.894121 0.210322,0.833758 0.342512,1.555588 0.293753,1.604064 -0.04876,0.04848 -0.292378,-0.0041 -0.541377,-0.116947 -0.249003,-0.112798 -0.574262,-0.158721 -0.722797,-0.102045 -0.148537,0.05667 -0.605737,0.757901 -1.015999,1.558291 -0.704461,1.37435 -0.751464,1.426109 -0.845487,0.931032 -0.169038,-0.890109 -0.607394,-0.74059 -1.508132,0.514411 -0.454062,0.632644 -0.888283,1.150263 -0.964936,1.150263 -0.07665,0 -0.234315,-0.113738 -0.350354,-0.252753 -0.311055,-0.372638 -0.557307,-0.200737 -1.244,0.868396 C 11.36618,20.567265 11.048533,21 11.000003,21 10.951463,21 10.633826,20.567265 10.29412,20.038364 Z m 2.195877,-3.461954 c 0.437404,-0.620888 0.353924,-1.013685 -0.215435,-1.013685 -0.269582,0 -0.666639,-0.12291 -0.882354,-0.27313 -0.354977,-0.247206 -0.429436,-0.247206 -0.784412,0 -0.215714,0.15022 -0.6127742,0.27313 -0.8823532,0.27313 -0.569362,0 -0.652841,0.392797 -0.215435,1.013685 0.23866,0.338773 0.434207,0.38995 1.4899942,0.38995 1.055786,0 1.251333,-0.05118 1.489994,-0.38995 z m -2.364791,-1.544071 c 0.185511,-0.09871 0.418824,-0.330936 0.518472,-0.516055 0.151469,-0.281393 0.09302,-0.388359 -0.356512,-0.652371 -0.4071292,-0.239111 -0.5251283,-0.42268 -0.4859562,-0.755989 0.0493,-0.419536 0.1055759,-0.440197 1.1987932,-0.440197 1.098824,0 1.149267,0.01886 1.199587,0.448376 0.0388,0.33122 -0.06494,0.510883 -0.397061,0.687603 -0.553945,0.294755 -0.578091,0.772358 -0.05737,1.13498 0.60264,0.419674 0.922244,0.331731 1.387051,-0.381663 0.234644,-0.360135 0.764678,-0.840081 1.177854,-1.066547 0.413177,-0.226464 0.837227,-0.571516 0.942336,-0.766779 0.320767,-0.595909 0.537786,-2.57581 0.325556,-2.9700843 -0.103518,-0.192321 -1.033327,-1.016764 -2.066233,-1.832096 -2.493495,-1.9682593 -2.508863,-1.9682582 -5.0152486,5.089e-4 -1.037239,0.8147508 -1.9706568,1.6388428 -2.0742611,1.8313149 -0.2144224,0.3983435 0.0057,2.3763995 0.3318708,2.9823625 0.108659,0.201866 0.4533001,0.495513 0.7658631,0.65255 0.6962925,0.349826 1.3624158,0.938969 1.3624158,1.204964 0,0.529313 0.6450437,0.757218 1.242853,0.439122 z M 8.8823526,10.840079 c 0,-0.104544 -0.1534156,-0.190075 -0.3409241,-0.190075 -0.3464873,0 -1.1941291,-0.9886316 -1.0070877,-1.1745971 0.056246,-0.055922 0.4818164,0.0532 0.9457221,0.2424888 0.6683669,0.2727116 0.8434668,0.4294673 0.8434668,0.7551013 0,0.22602 -0.09926,0.443843 -0.220588,0.484052 -0.1213242,0.04021 -0.2205891,-0.01243 -0.2205891,-0.11697 z m 3.7696994,-0.102344 c -0.05586,-0.14475 -0.06115,-0.367936 -0.01174,-0.495969 0.09947,-0.2577354 1.677341,-0.913499 1.830828,-0.7608957 0.18302,0.1819621 -0.671962,1.1691377 -1.012573,1.1691377 -0.187507,0 -0.340925,0.07896 -0.340925,0.175455 0,0.272758 -0.352066,0.206422 -0.465595,-0.08773 z M 6.4117649,8.0155008 C 6.5993797,7.8930486 6.6181735,7.8044098 6.4762921,7.711142 6.3661913,7.6387643 6.246376,7.4236255 6.2100233,7.23305 6.1275709,6.8007801 5.4448878,6.4450836 4.6911724,6.4416847 3.9425162,6.4383514 3.9485129,6.762179 4.7120147,7.5670587 5.3139482,8.2016185 5.8926717,8.3543029 6.4117661,8.0155008 Z M 17.287985,7.5670587 c 0.763497,-0.8048797 0.769492,-1.1287507 0.02084,-1.125374 -0.753715,0.00344 -1.436396,0.3590954 -1.51885,0.7913653 -0.03635,0.1905755 -0.156175,0.4057176 -0.26627,0.478092 -0.141877,0.093267 -0.123083,0.1819066 0.06453,0.3043588 0.519095,0.3388021 1.097818,0.1861177 1.69975,-0.4484421 z M 7.1829833,6.4642547 C 7.4439549,6.1775459 7.448063,6.1125693 7.2172585,5.9221193 6.8221623,5.5961061 5.6854988,5.5040795 5.0882387,5.7497483 L 4.5588271,5.9675104 5.2081167,6.0859415 C 5.5652263,6.1510745 6.0416975,6.3319981 6.26694,6.4879869 6.7940115,6.852999 6.8299886,6.8520679 7.1829867,6.4642539 Z m 8.5148867,0.0325 C 15.945456,6.3354636 16.438986,6.1504026 16.794602,6.0855071 L 17.441175,5.9675149 16.911764,5.7497527 c -0.59726,-0.2456688 -1.733924,-0.1536421 -2.129019,0.1723711 -0.230807,0.1904499 -0.2267,0.2554266 0.03428,0.5421353 0.35944,0.3948921 0.326434,0.3936743 0.880853,0.0325 z"
	 class="ColorScheme-Text"
     />
</svg>

<svg xmlns="http://www.w3.org/2000/svg" viewBox="0 0 22 22"><path d="M10.294 20.038c-.687-1.069-.933-1.24-1.244-.868-.116.139-.274.253-.35.253-.077 0-.511-.518-.965-1.15-.9-1.256-1.34-1.405-1.508-.515-.094.495-.141.443-.846-.931-.41-.8-.867-1.502-1.016-1.558-.148-.057-.474-.011-.723.102-.249.113-.492.165-.541.117-.049-.049.083-.77.294-1.604.455-1.805.358-2.064-.71-1.894-.525.083-.685.05-.685-.14 0-.138.51-1.109 1.131-2.159 1.064-1.794 1.116-1.932.87-2.306-.642-.974.313-2.174 1.731-2.174.374 0 .68-.048.68-.106 0-.059-.199-.341-.441-.628-.243-.287-.442-.584-.442-.662 0-.077.522-.043 1.16.076l1.16.217-.11-.434c-.06-.239-.154-.66-.21-.936l-.101-.502 1.112.449 1.113.45.312-.41c.172-.225.447-.705.612-1.067.165-.362.355-.658.423-.658s.258.296.423.658c.165.362.44.842.612 1.067l.312.41 1.113-.45 1.112-.45-.101.503c-.056.276-.151.702-.213.946-.122.482-.177.48 1.816.03.543-.122.498.142-.151.877l-.548.62h.787c1.525 0 2.505 1.16 1.837 2.174-.246.374-.194.512.87 2.306C19.49 10.741 20 11.712 20 11.85c0 .191-.16.224-.685.14-1.068-.17-1.165.09-.71 1.895.21.833.343 1.555.294 1.604-.049.048-.292-.004-.541-.117-.25-.113-.575-.159-.723-.102-.149.056-.606.758-1.016 1.558-.705 1.374-.752 1.426-.846.931-.169-.89-.607-.74-1.508.514-.454.633-.888 1.15-.965 1.15-.076 0-.234-.113-.35-.252-.311-.373-.557-.2-1.244.868-.34.53-.657.962-.706.962-.049 0-.366-.433-.706-.962Zm2.196-3.462c.437-.62.354-1.013-.215-1.013-.27 0-.667-.123-.883-.273-.355-.248-.43-.248-.784 0-.216.15-.613.273-.883.273-.569 0-.652.393-.215 1.013.239.34.434.39 1.49.39s1.251-.05 1.49-.39zm-2.365-1.544c.186-.098.419-.33.519-.516.151-.281.093-.388-.357-.652-.407-.24-.525-.423-.486-.756.05-.42.106-.44 1.199-.44 1.099 0 1.15.019 1.2.448.038.331-.065.511-.397.688-.554.294-.579.772-.058 1.135.603.42.922.331 1.387-.382.235-.36.765-.84 1.178-1.067.413-.226.837-.571.942-.766.321-.596.538-2.576.326-2.97-.104-.193-1.033-1.017-2.066-1.832-2.494-1.969-2.51-1.969-5.016 0-1.037.815-1.97 1.639-2.074 1.831-.214.399.006 2.377.332 2.983.109.202.453.495.766.652.696.35 1.362.94 1.362 1.205 0 .53.645.757 1.243.44zM8.882 10.84c0-.104-.153-.19-.34-.19-.347 0-1.195-.989-1.008-1.175.057-.056.482.054.946.243.668.273.844.43.844.755 0 .226-.1.444-.221.484-.121.04-.22-.012-.22-.117zm3.77-.102a.802.802 0 0 1-.012-.496c.1-.258 1.678-.914 1.831-.761.183.182-.672 1.169-1.012 1.169-.188 0-.341.079-.341.175 0 .273-.352.207-.466-.087zm-6.24-2.722c.187-.123.206-.212.064-.305-.11-.072-.23-.287-.266-.478-.082-.432-.765-.788-1.519-.791-.748-.004-.742.32.021 1.125.602.635 1.18.787 1.7.449Zm10.876-.449c.763-.805.77-1.129.02-1.125-.753.003-1.436.359-1.518.791-.036.19-.156.406-.266.478-.142.093-.123.182.064.305.52.338 1.098.186 1.7-.449zM7.183 6.464c.261-.286.265-.351.034-.542-.395-.326-1.532-.418-2.129-.172l-.53.218.65.118c.357.065.834.246 1.059.402.527.365.563.364.916-.024Zm8.515.033c.247-.162.741-.347 1.097-.411l.646-.118-.53-.218c-.596-.246-1.733-.154-2.128.172-.231.19-.227.256.034.542.36.395.326.394.88.033z" style="fill:currentColor;fill-opacity:1;stroke:none;color:#dedede"/></svg>
